X:1
T:Recondita armonia
T:Recondita armonia
T:Tosca atto I - Solo (Cavaradossi, tenore)
T:Giacomo Puccini
T:by IMSLP - Scritto con MuseScore, un software libero e gratuito: http://musescore.org/it
T:by IMSLP - Scritto con MuseScore, un software libero e gratuito: http://musescore.org/it
T:by IMSLP - Scritto con MuseScore, un software libero e gratuito: http://musescore.org/it
T:by IMSLP - Scritto con MuseScore, un software libero e gratuito: http://musescore.org/it
C:Giacomo Puccini
Z:by IMSLP - Scritto con MuseScore, un software libero e gratuito: http://musescore.org/it
%%score 1 { ( 2 4 ) | ( 3 5 ) }
L:1/8
Q:1/4=48
M:3/4
K:F
V:1 treble nm="Voice"
V:2 treble nm="Piano"
V:4 treble 
V:3 treble 
V:5 treble 
V:1
"^Andante lento" z6 | z6 | z6 | z6 | z6 | z6 | z6 | z6 | z6 | z6 | z6 | z6 |"^CANTO" z2 z2 z (d || %13
w: ||||||||||||Re\-|
[M:6/8]!pp!"^Più lento" f2 f f2 f | e3 e3) | z (!tenuto!f !tenuto!f !tenuto!f !tenuto!d !tenuto!f | %16
w: con\- di\- taar\- no\-|ni\- a|di bel\- lez\- ze di\-|
 e3 e3) | z2"^Sostenendo" (c (g2 c) | (f2 A) c2)!pp! (c | %19
w: ver\- se!...|È bru\- na|Flo\- ri\- a, l'ar\-|
"^rall....................................................a tempo" (d2 F) G2 (A | F3) F2) z | %21
w: den\- tea\- man\- te|mi\- a,|
 z2 z z2!p! (e | a2 e g2 e | (d>ef) d3 | !breath!d) (e f{/g} f e d |{/e} (dcA) A2) z | %26
w: e|te, bel\- ta\- dei|gno _ _ ta,|_ cin\- ta di chio\- me|bion _ _ de!...|
 ((f2 c) (e2 c) | A3 A3- | A) (=B c d2 (e | c3) c) z z ||[M:3/4]"^Lo stesso movimento" z6 | %31
w: Tu az\- zur\- rohai|l'oc\- chio,|_ To\- scaha l'oc\- chio|ne\- ro!||
 B2 B B B B | B2 B2 z A/ A/ | A A/ A/ A A A B | %34
w: L'ar\- te nel suo mi\-|ste\- ro le di\-|ver\- se bel\- lez\- ze insiem con\-|
"^rall:.............         ...................." c2 c2 ((d2 ||[M:6/8]"^I Tempo" f2 f) f2 f | %36
w: fon\- de: ma|nel ri\- trar co\-|
 e3 e2) z | z (f f (f d) f | e3 e3) |!f! (a2 c g2 c | f2 A c3) | %41
w: ste\- i...|il mio so\- lo pen\-|sie\- ro,|ah!~il mio sol pen\-|sier sei tu!|
"^allarg." (2:3:2(db)"^rit......................."({ga)} g2 f | f z z z2 z | z6 | z6 | %45
w: To _ sca, sei|tu!|||
 !fermata!z6 |] %46
w: |
V:2
 z2 z2 z ^C | z2 z ^D/E/ z/ (^F/G/A/ | B2)!p! (3:2:2z2 ([gd'] (3[bf'][gd'][fb]) | %3
 ([dg]7/2 [ea]/ [fb]/[gc']/[fb]/[ea]/ | %4
{/b} [ea]/[dg]/{/b}[ea]/[dg]/ [dg]2)!pp! !arpeggio![cegc']2 | .[fac'].[cfa] !tenuto![Acf]2 (d>g) | %6
 [Gcg]4- [Gcg] z | z2 z (^D/E/) z/ (B/G/A/ | d2) (3:2:2z2 ([dgd'] (3[fd'a'][dgf'][Bfb]) | %9
 ([Gdg]7/2 [Aea]/ [Bfb]/[cgc']/[Bfb]/[Aea]/ | %10
{/b} [Aea]/[Gdg]/{/b}[Gea]/[Fdg]/ [Gdg]2) !arpeggio![A^cea]2 | %11
 .[ceg].[Gce] !tenuto![EGc]2!pp! .[DFA].[DFB] | [CFc][CFA] [A,CF] z z !arpeggio![DFBd] || %13
[M:6/8]!pp!!<(! (F2 G A2 c!<)! |!>(! d3 c3)!>)! |!<(! (F2 G A2 c!<)! |!>(! d3 c3)!>)! | %17
 !tenuto![Acfa]2"^Sostenendo" (c [Bdeg]2) (c | [Bdeg]2) (A [CFc]2) z | %19
"^rall....................................................a tempo"!pp! ([DFd]2 [B,DF]) ([DG]2 [EA]) | %20
 [A,CF]6- | z2 (A !tenuto!c2)!p! (e |!pp!{/A} a2) (e{/A} a2) e |({FB)} (d>ef) d3 | %24
 (!breath!def{/g} fed) |({FA)} (dc(A) A) z (c |({FA)} f2) (c({FA)} e2) c | [CFA]>[DF=B][EFA] A3- | %28
 (A=Bc d2 e |!p!!>(! c3- c)!>)! z z || %30
[M:3/4]"^Lo stesso movimento" z2!p! (3:2:2z2 ([gd'] (3[bf'][gd'][fb]) | %31
 ([dg]7/2 [ea]/ [fb]/[gc']/[fb]/[ea]/ | %32
{/b} [ea]/[dg]/{/b}[dg]/[cf]/) !tenuto![dg]2 !arpeggio![A^cea]2 | %33
 .[Ada].[Adg] .[FAd] z .[DFA].[DFB] |"^col canto" .[CFc].[CFA] .[A,CF] z .[DFBd] z || %35
[M:6/8]!<(! (!///-![ae']3 f3)!<)! |!>(! (!///-![gbd']3 e3)!>)! | %37
!<(! z !tenuto![faf']!tenuto![ff'] !tenuto![ff']!tenuto![dd']!tenuto![faf']!<)! | %38
!>(! (!///-![gbf']3 e3)!>)! |!f! [ad'f']2 ([cc'] [gd'g']2) ([cc'] | [faf']2) ([Aa] [cec']3) | %41
"^allarg. col canto" (2:3:2!>![dfd'][bd'f'b'] !>![bd'g'] z z |!p!!>(! [ac'f']3- [ac'f'] z z!>)! | %43
 f z (A cf)!ppp!"^dolciss." (a | c'6-) | !fermata!c'3- c'2 z |] %46
V:3
 !tenuto!C2 !tenuto!C2 !tenuto!C2 | !tenuto!C2 !tenuto!C2 !tenuto!C2 | %2
 !tenuto!C2 !tenuto![CDFB]2 !tenuto![CDFB]2 | !tenuto![CDFB]2 !tenuto![CDFB]2 !tenuto![CDFB]2 | %4
 !tenuto![CDFB]2 !tenuto![CDFB]2 !arpeggio![CDFB]2 | %5
 !tenuto![CDFG]2 !tenuto![CDF]2 !tenuto![CDF]2 | [CE]2 C2 C2 | %7
 !tenuto![B,C]2 !tenuto![B,C]2 !tenuto![A,C]2 | [G,C]2 [G,B,DF]2 [G,B,DF]2 | %9
[K:bass]!ped! z [G,B,E] [B,DG] z [DF] z!ped-up! | [B,,,B,,]2 [B,D]2 !arpeggio![A,CEA]2 | %11
 [D,,D,]3 !arpeggio![A,DF] [C,,C,][B,,,B,,] | %12
 .[A,,,A,,] z z2 .[G,,,G,,]/.[A,,,A,,]/.[B,,,B,,]/.[D,,D,]/ ||[M:6/8] [C,,C,]6- | %14
 [C,,C,]3- [C,,C,]2- [C,,C,]- | [C,,C,]6- | [B,E]6 | z2 z !arpeggio![B,DEG] z z | %18
 !arpeggio![B,DEG] z z z2 z | ([B,,,B,,]2 [A,,,A,,]) ([G,,,G,,]2 [C,,C,]) | %20
!ped! z2"^m. d." (C, F,A,C | D2) z z2!ped-up! z | %22
 (C,,/G,,/C,/E,/G,/E/ G/[K:treble]G/c/G/)[K:bass] (!>!G/4E/4G,/4E,/4) | %23
 (G,,/D,/G,/B,/D/F/ B/F/D/B,/) (!>!=A,/4B,/4D/4F/4) | %24
 (G,/B,/E/B,/F/B,/) (C,,/G,,/C,/G,/) (!>!D/4B,/4G,/4E,/4) | %25
 (F,,/C,/F,/A,/C/A,/ F/C/A,/G,/) (!>!D/4B,/4G,/4E,/4) | (D,,/A,,/D,/F,/A,/C/) (E/C/A/E/C/A,/) | %27
 (G,,/4D,/4F,/4A,/4 C/) z/ z z/ (D/A,/F,/)!<(! (!>!D,/4A,,/4F,,/4D,,/4)!<)! | %28
 G,,,/(D,/=A,/F,/C/A,/ D/D,/F,/G,/B,/) z/ | (C,,/F,,/C,/E,/G,/E,/ C) z z || %30
[M:3/4][K:treble] !tenuto![CDFB]2 !tenuto![CDFB]2 !tenuto![CDFB]2 | %31
 !tenuto![CDFB]2 !tenuto![CDFB]2 !tenuto![CDFB]2 | %32
 !tenuto![CDFB]2 !tenuto![B,DG]2 !arpeggio![A,CEG]2 | %33
[K:bass] !arpeggio!.[D,A,F]2- [D,A,F] z .[=C,,=C,].[B,,,B,,] | %34
 .[A,,,A,,] z z2 .[G,,,G,,]/.[A,,,A,,]/.[B,,,B,,]/.[D,,D,]/ ||[M:6/8]{/[C,,C,]} [C,,C,]6- | %36
 [C,,C,]3- [C,,C,]2 [C,,C,] | [C,,C,]6- | [C,,C,]3- [C,,C,]2!f! !>![C,,C,]- | %39
!ped! (!///-![CF]3/2 A3/2)!ped! (!///-![DE] E) ([CE]/4G/4[CF]/4G/4)!ped-up! | %40
!ped! (!///-![A,D]3/2 F3/2)!ped! (!///-![A,CE]3/2 F3/2)!ped-up! | %41
 (2:3:2!>![B,,,B,,]!>![G,,,G,,] !>![C,,C,] z z |!ped! F,,2 B,, F,A,C!ped-up! | F2 z z2 z | %44
!ped! z2 z [F,,C,]3!ped-up! | !fermata![F,,C,]3- [F,,C,]2 z |] %46
V:4
 x6 | !tenuto!D2 !tenuto!D2 !tenuto![=DF]2 | [D=F]2 x4 | x6 | x6 | x4 [G=B]2 | x6 | %7
 z (^C D2) [=DF]2 | [D=F]2 x4 | x6 | x6 | x6 | x6 ||[M:6/8] [A,C]3- [A,C]2 x | x6 | x6 | x6 | x6 | %18
 x6 | x3 B,3 | x6 | [A,CF]3- [A,CF] z x | x6 | x6 | x6 | x6 | x6 | x3{/C} F3- | F3- F [FG-]2 | %29
 [EG]3- [EG] x2 ||[M:3/4] x6 | x6 | x6 | x6 | x6 ||[M:6/8]{/F,} F2{/G,} G{/A,} A2{/C} c | %36
({DB)} d3 c3 |{/F,} (F2{/G,} G{/A,} A2{/C} c |{/D} d3{/C} c3) | x6 | x6 | x6 | f6- | x6 | %44
 z2 z [A,F]3 | [A,F]3- [A,F]2 z |] %46
V:5
 x6 | x6 | x6 | x6 | x6 | x6 | x4 z C | x6 | x6 |[K:bass] [C,,G,,]4- [C,,G,,] z | x6 | x6 | x6 || %13
[M:6/8] x5 [A,F] | [B,F]6 | x5 [A,F] | [C,,C,]3- [C,,C,]2 [C,,C,]- | [C,,C,]6- | %18
 [C,,C,]3 [A,,F,A,]3 | x6 | (!///-!F,,,3 F,,3) | (!///-!F,,,3/2 F,,3/2-) [F,,,F,,] z z | %22
 x7/2[K:treble] x3/2[K:bass] x | x6 | G,3 x3 | x6 | x6 | x6 | x6 | x6 ||[M:3/4][K:treble] x6 | x6 | %32
 x6 |[K:bass] x6 | x6 ||[M:6/8] x6 | x6 | x6 | x6 | [C,,C,]3{/B,,} [B,,,B,,]3 | %40
{/D,} [D,,D,]3{/A,,} [A,,,A,,]3 | x6 | F,,,6- | F,,,3- F,,, z z | x6 | x6 |] %46

